libs/ui/packages/crypto-icons/src/svg/GIN.svg

<svg width="24" height="24" viewBox="0 0 24 24" fill="none">
<path d="M18.0574 12.7638C18.1306 12.7666 18.2037 12.7545 18.2721 12.7283C18.3406 12.7022 18.4031 12.6625 18.4559 12.6116C18.5087 12.5607 18.5507 12.4998 18.5794 12.4323C18.6081 12.3648 18.6228 12.2923 18.6228 12.219C18.6228 12.1457 18.6081 12.0731 18.5794 12.0057C18.5507 11.9382 18.5087 11.8772 18.4559 11.8263C18.4031 11.7755 18.3406 11.7358 18.2721 11.7096C18.2037 11.6835 18.1306 11.6714 18.0574 11.6741H16.8124V10.4426H19.4156C19.4889 10.4453 19.5619 10.4332 19.6304 10.4071C19.6989 10.3809 19.7614 10.3412 19.8142 10.2904C19.867 10.2395 19.9089 10.1785 19.9376 10.111C19.9663 10.0436 19.9811 9.97103 19.9811 9.89772C19.9811 9.82442 19.9663 9.75186 19.9376 9.6844C19.9089 9.61694 19.867 9.55595 19.8142 9.50509C19.7614 9.45422 19.6989 9.41453 19.6304 9.38837C19.5619 9.36221 19.4889 9.35013 19.4156 9.35285H16.8019C16.749 8.76937 16.5045 8.2198 16.1064 7.78996C15.7083 7.36012 15.1791 7.0742 14.6014 6.97685V5.6651C14.6041 5.59184 14.592 5.51879 14.5658 5.45031C14.5397 5.38183 14.5 5.31933 14.4491 5.26655C14.3983 5.21376 14.3373 5.17177 14.2698 5.14309C14.2023 5.11441 14.1298 5.09963 14.0565 5.09963C13.9832 5.09963 13.9106 5.11441 13.8432 5.14309C13.7757 5.17177 13.7147 5.21376 13.6639 5.26655C13.613 5.31933 13.5733 5.38183 13.5471 5.45031C13.521 5.51879 13.5089 5.59184 13.5116 5.6651V6.9401H12.2801V4.07435C12.2828 4.00109 12.2708 3.92804 12.2446 3.85956C12.2184 3.79109 12.1787 3.72858 12.1279 3.6758C12.077 3.62301 12.016 3.58102 11.9486 3.55234C11.8811 3.52366 11.8085 3.50888 11.7352 3.50888C11.6619 3.50888 11.5894 3.52366 11.5219 3.55234C11.4545 3.58102 11.3935 3.62301 11.3426 3.6758C11.2917 3.72858 11.252 3.79109 11.2259 3.85956C11.1997 3.92804 11.1876 4.00109 11.1904 4.07435V6.93935H9.95811V5.66435C9.95288 5.52334 9.89319 5.38985 9.79157 5.29193C9.68996 5.19402 9.55435 5.13932 9.41324 5.13932C9.27213 5.13932 9.13652 5.19402 9.03491 5.29193C8.93329 5.38985 8.8736 5.52334 8.86836 5.66435V6.97685C8.29064 7.0742 7.76142 7.36012 7.36333 7.78996C6.96524 8.2198 6.72069 8.76937 6.66787 9.35285H3.59061C3.51736 9.35013 3.44431 9.36221 3.37583 9.38837C3.30735 9.41453 3.24485 9.45422 3.19206 9.50509C3.13928 9.55595 3.09729 9.61694 3.06861 9.6844C3.03993 9.75186 3.02515 9.82442 3.02515 9.89772C3.02515 9.97103 3.03993 10.0436 3.06861 10.111C3.09729 10.1785 3.13928 10.2395 3.19206 10.2904C3.24485 10.3412 3.30735 10.3809 3.37583 10.4071C3.44431 10.4332 3.51736 10.4453 3.59061 10.4426H6.65811V11.6741H5.41312C5.33986 11.6714 5.26681 11.6835 5.19833 11.7096C5.12985 11.7358 5.06735 11.7755 5.01456 11.8263C4.96178 11.8772 4.91979 11.9382 4.89111 12.0057C4.86243 12.0731 4.84765 12.1457 4.84765 12.219C4.84765 12.2923 4.86243 12.3648 4.89111 12.4323C4.91979 12.4998 4.96178 12.5607 5.01456 12.6116C5.06735 12.6625 5.12985 12.7022 5.19833 12.7283C5.26681 12.7545 5.33986 12.7666 5.41312 12.7638H6.65811V13.9953H4.28586C4.21261 13.9926 4.13956 14.0047 4.07108 14.0309C4.0026 14.057 3.9401 14.0967 3.88731 14.1476C3.83453 14.1985 3.79254 14.2594 3.76386 14.3269C3.73518 14.3944 3.7204 14.4669 3.7204 14.5402C3.7204 14.6135 3.73518 14.6861 3.76386 14.7535C3.79254 14.821 3.83453 14.882 3.88731 14.9329C3.9401 14.9837 4.0026 15.0234 4.07108 15.0496C4.13956 15.0757 4.21261 15.0878 4.28586 15.0851H6.66787C6.72069 15.6686 6.96524 16.2181 7.36333 16.648C7.76142 17.0778 8.29064 17.3637 8.86836 17.4611V18.3086C8.86565 18.3818 8.87773 18.4549 8.90389 18.5234C8.93004 18.5919 8.96974 18.6544 9.02061 18.7071C9.07147 18.7599 9.13246 18.8019 9.19992 18.8306C9.26738 18.8593 9.33993 18.8741 9.41324 18.8741C9.48654 18.8741 9.5591 18.8593 9.62656 18.8306C9.69402 18.8019 9.75501 18.7599 9.80587 18.7071C9.85674 18.6544 9.89644 18.5919 9.92259 18.5234C9.94875 18.4549 9.96083 18.3818 9.95811 18.3086V17.4978H11.1896V19.9661C11.1948 20.1071 11.2545 20.2406 11.3562 20.3385C11.4578 20.4364 11.5934 20.4911 11.7345 20.4911C11.8756 20.4911 12.0112 20.4364 12.1128 20.3385C12.2144 20.2406 12.2741 20.1071 12.2794 19.9661V17.4978H13.5109V18.7728C13.5081 18.8461 13.5202 18.9192 13.5464 18.9876C13.5725 19.0561 13.6122 19.1186 13.6631 19.1714C13.714 19.2242 13.775 19.2662 13.8424 19.2949C13.9099 19.3235 13.9824 19.3383 14.0557 19.3383C14.129 19.3383 14.2016 19.3235 14.2691 19.2949C14.3365 19.2662 14.3975 19.2242 14.4484 19.1714C14.4992 19.1186 14.5389 19.0561 14.5651 18.9876C14.5913 18.9192 14.6033 18.8461 14.6006 18.7728V17.4618C15.1783 17.3645 15.7076 17.0786 16.1056 16.6487C16.5037 16.2189 16.7483 15.6693 16.8011 15.0858H20.4094C20.4826 15.0886 20.5557 15.0765 20.6241 15.0503C20.6926 15.0242 20.7551 14.9845 20.8079 14.9336C20.8607 14.8827 20.9027 14.8218 20.9314 14.7543C20.9601 14.6868 20.9748 14.6143 20.9748 14.541C20.9748 14.4677 20.9601 14.3951 20.9314 14.3277C20.9027 14.2602 20.8607 14.1992 20.8079 14.1483C20.7551 14.0975 20.6926 14.0578 20.6241 14.0316C20.5557 14.0055 20.4826 13.9934 20.4094 13.9961H16.8131V12.7646H18.0574V12.7638ZM15.9424 14.8503C15.942 15.3216 15.7546 15.7735 15.4213 16.1068C15.088 16.44 14.6362 16.6274 14.1649 16.6278H9.30486C8.83356 16.6274 8.38168 16.44 8.04842 16.1068C7.71516 15.7735 7.52776 15.3216 7.52736 14.8503V9.58685C7.52776 9.11555 7.71516 8.66366 8.04842 8.3304C8.38168 7.99714 8.83356 7.80975 9.30486 7.80935H14.1649C14.6362 7.80975 15.088 7.99714 15.4213 8.3304C15.7546 8.66366 15.942 9.11555 15.9424 9.58685V14.8496V14.8503Z" fill="#008DDE"/>
<path d="M10.4614 9.09559C10.2509 9.09222 10.0404 9.09947 9.83061 9.11734C9.49911 9.15484 9.25536 9.45484 9.24486 9.78034C9.22836 10.5183 9.24186 11.2578 9.23736 11.9958C9.24786 12.3723 9.21186 12.7533 9.26736 13.1261C9.32061 13.4591 9.64611 13.6736 9.96936 13.6728C10.9744 13.6796 11.9794 13.6751 12.9844 13.6758V14.0921H9.74811L9.33186 15.3408H12.5524C12.9289 15.3303 13.3091 15.3663 13.6826 15.3116C14.0156 15.2583 14.2294 14.9328 14.2286 14.6096C14.2361 13.2948 14.2301 11.9801 14.2324 10.6646C14.2204 10.3121 14.2631 9.95284 14.1919 9.60484C14.1161 9.25009 13.7359 9.07534 13.3999 9.09709H11.0929C10.8829 9.10084 10.6714 9.09634 10.4606 9.09484L10.4614 9.09559ZM10.4861 10.3458H12.9836V12.4271H10.4861V10.3458Z" fill="#008DDE"/>
</svg>

<svg width="24" height="24" viewBox="0 0 24 24" fill="none"><path fill="#008dde" d="M18.057 12.764a.543.543 0 0 0 .566-.545.545.545 0 0 0-.566-.545h-1.245v-1.231h2.604a.547.547 0 0 0 .398-.938.55.55 0 0 0-.398-.152h-2.614a2.65 2.65 0 0 0-2.2-2.376V5.665a.545.545 0 1 0-1.09 0V6.94H12.28V4.074a.545.545 0 1 0-1.09 0V6.94H9.958V5.664a.545.545 0 0 0-1.09 0v1.313a2.65 2.65 0 0 0-2.2 2.376H3.59a.545.545 0 1 0 0 1.09h3.067v1.231H5.413a.547.547 0 0 0-.398.938.54.54 0 0 0 .398.152h1.245v1.231H4.286a.545.545 0 1 0 0 1.09h2.382a2.65 2.65 0 0 0 2.2 2.376v.848a.546.546 0 1 0 1.09 0v-.811h1.232v2.468a.545.545 0 0 0 1.09 0v-2.468h1.23v1.275a.543.543 0 0 0 .546.565.547.547 0 0 0 .545-.565v-1.311a2.65 2.65 0 0 0 2.2-2.376h3.608a.543.543 0 0 0 .566-.545.545.545 0 0 0-.566-.545h-3.596v-1.231zm-2.115 2.086a1.78 1.78 0 0 1-1.777 1.778h-4.86a1.78 1.78 0 0 1-1.778-1.778V9.587a1.78 1.78 0 0 1 1.778-1.778h4.86a1.78 1.78 0 0 1 1.777 1.778z"/><path fill="#008dde" d="M10.461 9.096a6 6 0 0 0-.63.021c-.332.038-.576.338-.586.663-.017.738-.003 1.478-.008 2.216.01.376-.025.757.03 1.13.054.333.38.548.702.547 1.005.007 2.01.002 3.015.003v.416H9.748l-.416 1.249h3.22c.377-.01.757.025 1.13-.03.334-.053.547-.378.547-.701.007-1.315.001-2.63.003-3.945-.012-.353.031-.712-.04-1.06-.076-.355-.456-.53-.792-.508h-2.307c-.21.004-.422 0-.632-.002m.025 1.25h2.498v2.081h-2.498z"/></svg>
